Obsidian/actions/24s/tools-media-optical-burn.svg

<svg height="24" viewBox="0 0 24 24" width="24" xmlns="http://www.w3.org/2000/svg"><path d="m9.5488281 1c-4.0896198 1.7503927-6.5429687 5.850886-6.5429687 8.75 0 2.8654 2.1474531 5.189841 4.8144531 5.244141-1.3328-.028-2.4082031-1.186941-2.4082031-2.619141 0-1.4498 1.2281375-3.5 3.2734375-4.375 0 3.0625 2.1965191 3.5052 1.6367191 5.25-.31738.98934-1.0915941 1.739947-2.4335941 1.748047.008.00004.0167906.001953.0253906.001953 2.7110005 0 4.2700035-1.5106 4.9082035-3.5 1.1195-3.4896-3.2734379-4.375-3.2734379-10.5z" fill="#bebebe" transform="translate(4 4)"/></svg>

<svg xmlns="http://www.w3.org/2000/svg" width="24" height="24" viewBox="0 0 24 24">
 <defs>
  <style id="current-color-scheme" type="text/css">
   .ColorScheme-Text { color:#bebebe; } .ColorScheme-Highlight { color:#4285f4; }
  </style>
 </defs>
 <path style="fill:currentColor" class="ColorScheme-Text" d="M 9.5488281 1 C 5.4592083 2.7503927 3.0058594 6.850886 3.0058594 9.75 C 3.0058594 12.6154 5.1533125 14.939841 7.8203125 14.994141 C 6.4875125 14.966141 5.4121094 13.8072 5.4121094 12.375 C 5.4121094 10.9252 6.6402469 8.875 8.6855469 8 C 8.6855469 11.0625 10.882066 11.5052 10.322266 13.25 C 10.004886 14.23934 9.2306719 14.989947 7.8886719 14.998047 C 7.8966719 14.998087 7.9054625 15 7.9140625 15 C 10.625063 15 12.184066 13.4894 12.822266 11.5 C 13.941766 8.0104 9.5488281 7.125 9.5488281 1 z" transform="translate(4 4)"/>
</svg>
